assets/Kangaroo/Flat/kangaroo_flat.svg

<svg width="32" height="32" viewBox="0 0 32 32" fill="none" xmlns="http://www.w3.org/2000/svg">
<path d="M2.00041 8.53C2.02041 9.34 2.68041 10 3.50041 10H4.96041V13.79C4.96041 15.56 6.40041 17 8.18041 17H8.90041C8.98041 17 9.02041 17.09 8.96041 17.15L8.34041 17.77C7.98041 18.13 7.76041 18.62 7.77041 19.13C7.80041 20.16 8.65041 21 9.69041 21H10.2504C10.6704 21 11.0104 20.66 11.0004 20.24C10.9904 19.83 10.6404 19.5 10.2304 19.5H9.68041C9.51041 19.5 9.36041 19.4 9.30041 19.24C9.25041 19.09 9.29041 18.94 9.39041 18.84L10.1904 18.04C10.4404 17.79 10.6304 17.51 10.7704 17.2C10.8204 17.08 10.9404 17 11.0804 17H13.1268C13.0853 17.6624 13.2322 18.3433 13.5904 18.9601C14.2504 20.1101 15.4704 20.7401 16.7004 20.7101L17.5004 22.1001L14.7704 23.6201C13.7004 24.2201 13.0404 25.3401 13.0404 26.5701V28.1001C13.0404 28.5401 13.3604 28.9301 13.8004 28.9901C14.1904 29.0401 14.5504 28.8301 14.7004 28.4801L15.2804 27.1601C15.4704 26.7301 15.7804 26.5001 15.9004 26.4301L20.0004 24.1301C20.4304 23.8901 20.7304 23.5001 20.8604 23.0301C20.9904 22.5601 20.9304 22.0701 20.6804 21.6401L19.5104 19.5901L21.6104 18.3801C22.2401 18.017 22.7077 17.495 23.0004 16.899V20.48C23.0004 22.4 24.5304 24.01 26.4504 24.03C28.4004 24.06 30.0004 22.48 30.0004 20.53V13.44C30.0004 13.2 29.8004 13 29.5604 13C28.7004 13 28.0004 13.7 28.0004 14.56V18.91C28.0004 19.46 27.5504 19.91 27.0004 19.91C26.4504 19.91 26.0004 19.46 26.0004 18.91V13.73C26.0004 9.29 22.4804 5.6 18.0504 5.5C14.3604 5.41 11.6204 7.92 10.1404 11.05C10.0404 11.26 9.88041 11.5 9.60041 11.5C9.27041 11.49 9.00041 11.23 9.00041 10.9V6L12.0004 4.01V3.31C12.0004 3.14 11.8604 3 11.6904 3H9.99041C8.89041 3 8.00041 3.74 8.00041 4.84C8.00041 4.93 7.93041 5 7.84041 5H6.02041C5.43041 5 4.92041 5.41 4.80041 5.99L4.71041 6.4C4.63041 6.75 4.33041 7 3.97041 7H3.53041C2.69041 7 1.98041 7.69 2.00041 8.53Z" fill="#F3AD61"/>
<path d="M7 7.5C7 7.77614 6.77614 8 6.5 8C6.22386 8 6 7.77614 6 7.5C6 7.22386 6.22386 7 6.5 7C6.77614 7 7 7.22386 7 7.5Z" fill="#1C1C1C"/>
<path d="M3.00043 8.5C3.00043 8.78 2.78043 9 2.50043 9V8C2.78043 8 3.00043 8.22 3.00043 8.5Z" fill="#1C1C1C"/>
<path d="M9.00043 5.99V6H10.0104C11.1104 6 12.0004 5.11 12.0004 4.01V4H10.9904C9.89043 4 9.00043 4.89 9.00043 5.99Z" fill="#B97028"/>
</svg>

<svg xmlns="http://www.w3.org/2000/svg" width="32" height="32" fill="none"><path fill="#F3AD61" d="M2 8.53c.02.81.68 1.47 1.5 1.47h1.46v3.79C4.96 15.56 6.4 17 8.18 17h.72c.08 0 .12.09.06.15l-.62.62c-.36.36-.58.85-.57 1.36A1.93 1.93 0 0 0 9.69 21h.56c.42 0 .76-.34.75-.76a.771.771 0 0 0-.77-.74h-.55a.4.4 0 0 1-.38-.26c-.05-.15-.01-.3.09-.4l.8-.8c.25-.25.44-.53.58-.84.05-.12.17-.2.31-.2h2.047a3.46 3.46 0 0 0 .463 1.96 3.49 3.49 0 0 0 3.11 1.75l.8 1.39-2.73 1.52c-1.07.6-1.73 1.72-1.73 2.95v1.53c0 .44.32.83.76.89.39.05.75-.16.9-.51l.58-1.32c.19-.43.5-.66.62-.73l4.1-2.3c.43-.24.73-.63.86-1.1.13-.47.07-.96-.18-1.39l-1.17-2.05 2.1-1.21A3.47 3.47 0 0 0 23 16.9v3.581c0 1.92 1.53 3.53 3.45 3.55 1.95.03 3.55-1.55 3.55-3.5v-7.09c0-.24-.2-.44-.44-.44-.86 0-1.56.7-1.56 1.56v4.35c0 .55-.45 1-1 1s-1-.45-1-1v-5.18c0-4.44-3.52-8.13-7.95-8.23-3.69-.09-6.43 2.42-7.91 5.55-.1.21-.26.45-.54.45a.608.608 0 0 1-.6-.6V6l3-1.99v-.7c0-.17-.14-.31-.31-.31h-1.7C8.89 3 8 3.74 8 4.84c0 .09-.07.16-.16.16H6.02c-.59 0-1.1.41-1.22.99l-.09.41c-.08.35-.38.6-.74.6h-.44C2.69 7 1.98 7.69 2 8.53Z"/><path fill="#1C1C1C" d="M7 7.5a.5.5 0 1 1-1 0 .5.5 0 0 1 1 0ZM3 8.5c0 .28-.22.5-.5.5V8c.28 0 .5.22.5.5Z"/><path fill="#B97028" d="M9 5.99V6h1.01C11.11 6 12 5.11 12 4.01V4h-1.01C9.89 4 9 4.89 9 5.99Z"/></svg>
